X:1
T:James Gibb editions
T:Verbum caro factum est - Schütz
T:#
%%score [ 1 2 ] 3
L:1/8
Q:1/4=108
M:4/4
K:F
V:1 treble nm="Soprano I"
V:2 treble nm="Soprano II"
V:3 bass nm="Continuo"
V:1
"^Verbum caro factum est, SWV 314""^Heinrich Schütz\n(1585-1672)" d6 c2 | B4 A4 | d6 c2 | B4 A4- | %4
w: Ver- bum|ca- ro,|ver- bum|ca- ro|
 A4 G4- | G4 ^F4 | G8 ||[M:3/2][Q:1/4=162] D2 G2 ^F4 G4 | =F2 B2 A4 B4 | %9
w: * fa\-|* ctum|est.|Al- le- lu- ja,|Al- le- lu- ja,|
[M:3/2][Q:1/4=162][Q:1/4=162][Q:1/4=162] G2 c2 =B4 c4 | A2 d2 ^c4 d4 ||[M:4/4] (GA) (Bc) A4 | G8 | %13
w: Al- le- lu- ja,|Al- le- lu- ja,|Al\- * le\- * lu-|ja.|
[Q:1/4=108] z8 | d6 c2 | B4 A4 | d6 c2 | B4 B4 |[M:4/4][Q:1/4=108][Q:1/4=108][Q:1/4=108] A4 A4 | %19
w: |Ver- bum|ca- ro,|ver- bum|ca- ro|fa- ctum|
 G8 ||[M:3/2][Q:1/4=162] z4 z4 G2 B2 | A4 B4 z4 | A2 c2 =B4 c4 | z4 !courtesy!_B2 d2 ^c4 || %24
w: est.|Al- le-|lu- ja,|Al- le- lu- ja,|Al- le- lu|
[M:4/4] d4 (GA) (B=c) |[Q:1/4=162][Q:1/4=162][Q:1/4=162] A8 | G8 |[Q:1/4=108] z8 | z8 | z8 | z8 | %31
w: ja, Al\- * le\- *|lu-|ja.|||||
 z8 | z8 ||[M:3/2][Q:1/4=162] z12 |[M:3/2] z12 | z12 ||[M:4/4] z8 |[Q:1/4=108] z2 E2 E2 F2 | %38
w: ||||||Et ha- bi-|
 (GDEF GAGA | BFGA BcBc | d4) c2 B2 | A8 | A8 ||[M:3/2] x12 |[M:3/2] G2 B2 F4 _E4 | _e2 g2 d4 c4 | %46
w: ta\- * * * * * * *||* vit in|no-|bis.||Al- le- lu- ja,|Al- le- lu- ja,|
 G2 B2 A4 G4 ||[M:4/4] (d!courtesy!=e) (fg) e4 | d8 |[Q:1/4=108] z4 d4 | d4 d4 | c4 B4 | B4 B4 | %53
w: Al- le- lu- ja,|Al\- * le\- * lu-|ja.|Et|vi- di-|mus, et|vi- di-|
 A8 ||[M:3/2] x12 |[M:3/2] C2 F2 E4 F4 | D2 G2 ^F4 G4 | =F2 B2 A4 B4 | f6 _e2 d4 | c8 B4 | %60
w: mus,||Al- le- lu- ja,|Al- le- lu- ja,|Al- le- lu- ja,|glo- ri- am|e- jus,|
 d6 c2 B4 | f6 _e2 d4 | g6 f2 _e4 | d8 c4 | G2 c2 =B4 c4 ||[M:4/4] (cd) (_ef) d4 | c8 | %67
w: glo- ri- am,|glo- ri- am,|glo- ri- am|e- jus.|Al- le- lu- ja,|Al\- * le\- * lu-|ja,|
[Q:1/4=108] z4 A4- | A2 A2 A4 |[M:4/4][Q:1/4=108][Q:1/4=108][Q:1/4=108] A4- A^FGA | B6 B2 | B8 | %72
w: glo\-|* ri- am|qua\- * si u- ni-|ge- ni-|ti|
 z4 z2 f2 | c8 | B8 | B6 B2 | B4 =B4- | BGA=B c4- | c4 c4 | c8 | z4 z2 d2 | A8 | G8 || %83
w: a|Pa-|tre,|glo- ri|am qua\-|* si u- ni- ge\-|* ni-|ti|a|Pa-|tre,|
[M:3/2][Q:1/4=162] _e8 d4 | c6 c2 c4 | G4 G4 B4 |[M:3/2][Q:1/4=162][Q:1/4=162][Q:1/4=162] A8 A4 | %87
w: ple- num|gra- ti- a|et ve- ri-|ta- te,|
 f8 _e4 | d6 d2 d4 | =B4 B4 d4 | ^c8 c4 | d4 d4 f4 | e8 d4 | z12 | z12 | _e8 d4 | c6 c2 c4 | %97
w: ple- num|gra- ti- a|et ve- ri-|ta- te,|et ve- ri-|ta- te,|||ple- num|gra- ti- a|
 F4 F4 A4 | G8 G4 | c8 B4 | A6 A2 A4 | E4 E4 G4 ||[M:4/4] (G2 ^FE F4) | G8 ||[M:3/2] D2 G2 ^F4 G4 | %105
w: et ve- ri-|ta- te,|ple- num|gra- ti- a|et ve- ri|ta\-\- * * *|te.|Al- le- lu- ja,|
 z4 D2 =F2 E4 | F4 z4 E2 G2 | ^F4 G4 z4 ||[M:4/4] F2 A2 E2 G2 | F2 A2 (E>F G2- | G2 ^F2) G4 | z8 | %112
w: Al- le- lu-|ja, Al- le-|lu- ja,|Al- le- lu- ja,|Al- le- lu\- * *|* * ja,||
 z8 | E2 G2 D2 F2 |[M:4/4] E2 G2 (D>E F2- | F2 E2) F4 | z4 G2 B2 | A2 F2 (GA) (Bc) | A8 | %119
w: |Al- le- lu- ja,|Al- le- lu\- * *|* * ja,|Al- le-|lu- ja, Al\- * le\- *|lu\--|
 G4 z2[Q:1/4=161] (E2- | %120
w: ja, Al\-|
[Q:1/4=159] E[Q:1/4=158]F[Q:1/4=157]E[Q:1/4=157]F[Q:1/4=155] G2)[Q:1/4=154] E2 | %121
w: * * * * * le-|
[Q:1/4=152] (^F2[Q:1/4=149] G4[Q:1/4=147] F2) |[Q:1/4=143] !fermata!G8 |] %123
w: lu\- * *|ja.|
V:2
 z8 | z8 | z8 | z8 | z8 | z8 | z8 ||[M:3/2] z12 | z12 |[M:3/2] z12 | z12 ||[M:4/4] z8 | z8 | %13
w: |||||||||||||
 d6 c2 | B4 A4 | d6 c2 | B4 A4- | A4 G4- |[M:4/4] G4 ^F4 | G8 ||[M:3/2] D2 G2 ^F4 G4 | %21
w: Ver- bum|ca- ro,|ver- bum|ca- ro|* fa\-|* ctum|est.|Al- le- lu- ja,|
 z4 D2 =F2 E4 | F4 z4 E2 G2 | ^F4 G4 z4 ||[M:4/4] =F2 A2 (E>F G2- | G2 ^FE F4) | G8 | z2 D2 D2 E2 | %28
w: Al- le- lu-|ja, Al- le-|lu- ja,|Al- le- lu\- * *||ja.|Et ha- bi-|
 (FCDE FGFG | AEFG ABAB | c4) B2 A2 | G8 | G8 ||[M:3/2] F2 A2 E4 D4 |[M:3/2] d2 f2 c4 B4 | %35
w: ta\- * * * * * * *||* vit in|no-|bis.|Al- le- lu- ja,|Al- le- lu- ja,|
 F2 A2 G4 F4 ||[M:4/4] (cd) (_ef) d4 | c8 | z8 | z8 | z8 | z8 | z8 ||[M:3/2] x12 |[M:3/2] z12 | %45
w: Al- le- lu- ja,|Al\- * le\- * lu-|ja.||||||||
 z12 | z12 ||[M:4/4] z8 | z8 | z4 B4 | B4 B4 | A4 d4 | d4 d4 | c8 ||[M:3/2] x12 |[M:3/2] c6 B2 A4 | %56
w: ||||Et|vi- di-|mus, et|vi- di-|mus,||glo- ri- am,|
 d6 c2 B4 | f6 _e2 d4 | c8 B4 | F2 B2 A4 B4 | D2 G2 ^F4 G4 | =F2 B2 A4 B4 | G2 c2 =B4 c4 | %63
w: glo- ri- am,|glo- ri- am,|a- jus,|Al- le- lu- ja,|Al- le- lu- ja,|Al- le- lu- ja,|Al- le- lu- ja,|
 g6 f2 _e4 | d8 c4 ||[M:4/4] (AB) (cd) =B4 | c8 | c6 c2 | c4 ^c4- |[M:4/4] cA=B^c d4- | d4 d4 | %71
w: glo- ri- am|e- jus.|Al\- * le\- * lu-|ja,|glo- ri-|am qua\-|* si u- ni- ge\-|* ni-|
 d4 z2 d2 | (A3 B/c/ B4- | B4 A4) | B8 | z4 G4- | G2 G2 G4 | G4- GEFG | A6 A2 | A4 z2 c2 | %80
w: ti a|Pa\- * * *||tre,|glo\-|* ri- am|qua\- * si u- ni-|ge- ni-|ti a|
 (^F3 G/A/ G4- | G4 ^F4) | G8 ||[M:3/2] x4 z8 | z12 | _e8 d4 |[M:3/2] c6 c2 c4 | A4 A4 c4 | %88
w: Pa\- * * *||tre,|||ple- num|gra- ti- a|et ve- ri-|
 =B8 B4 | g8 f4 | e6 e2 e4 | =B4 B4 d4 | ^c8 d4 | d8 =c4 | B6 B2 B4 | G4 G4 B4 | A8 A4 | d8 c4 | %98
w: ta- te,|ple- num|gra- ti- a|et ve- ri-|ta- te,|ple- num|gra- ti- a|et ve- ri-|ta- te,|ple- num|
 B6 B2 B4 | E4 E4 G4 | ^F8 F4 | G4 G4 B4 ||[M:4/4] A8 | G8 ||[M:3/2] z4 z4 G2 B2 | A4 B4 z4 | %106
w: gra- ti- a|et ve- ri-|ta- te,|et ve- ri-|ta-|te.|Al- le-|lu- ja,|
 A2 c2 =B4 c4 | z4 _B2 d2 ^c4 ||[M:4/4] d4 z4 | z8 | z4 B2 d2 | A2 c2 B2 d2 | (A>B c4 =B2) | %113
w: Al- le- lu- ja,|Al- le- lu-|ja,||Al- le-|lu- ja, Al- le-|lu\- * * *|
 c4 F2 A2 |[M:4/4] G2 E2 (FG) (AB) | G4 F4 | F2 A2 E2 G2 | F2 A2 (E>F G2 | G2 ^FE F4) | %119
w: ja, Al- le-|lu- ja, Al\- * le\- *|lu- ja,|Al- le- lu- ja,|Al- le- lu\- * *||
 G4 z2 (G2- | GAGA BABG | A2) B2 A4 | !fermata!G8 |] %123
w: ja, Al\-||* le- lu-|ja.|
V:3
 G,,6 A,,2 | B,,4 D,4 | G,,6 A,,2 | B,,4 D,4 | x4 x4 | x4- x4 | G,,8 ||[M:3/2] G,,4 D,4 G,,4 | %8
w: |||||4|||
 B,,4 F,4 B,,4 |[M:3/2] C,4 G,4 C,4 | D,4 A,4 D,4 ||[M:4/4] A,,2 G,,2 D,4 | G,,8 | G,,6 A,,2 | %14
w: ||||||
 B,,4 D,4 | G,,4 ^F,,4 | G,,4 D,4 | _E,4- E,2 D,2 |[M:4/4] C,4 D,4 | G,,8 ||[M:3/2] G,,4 D,4 _E,4 | %21
w: |||4 3 *||||
 F,4 B,,4 C,4 | F,4 G,4 C,4 | D,4 G,4 A,4 ||[M:4/4] D,4 C,2 G,,2 | x4- x4 | G,,8 | G,,4 G,,2 C,2 | %28
w: ||||4|||
 B,,4 A,,2 G,,2 | F,,6 G,,2 | A,,4 B,,4 | C,8 | C,8 ||[M:3/2] D,4 ^C,4 D,4 | %34
w: ||||||
[M:3/2] B,,4 A,,4 B,,4 | F,4 E,4 F,4 ||[M:4/4] C,4 G,4 | C,4 C,2 F,,2 | C,4 B,,2 A,,2 | G,,6 A,,2 | %40
w: ||||||
 B,,4 C,4 | D,8 | D,8 ||[M:3/2] x12 |[M:3/2] _E,4 D,4 E,4 | C,4 =B,,4 C,4 | G,4 ^F,4 G,4 || %47
w: |||||||
[M:4/4] D,4 A,4 | D,8 | B,,8 | B,,4 B,,4 | F,4 B,,4 | B,,4 B,,4 | F,8 ||[M:3/2] x12 | %55
w: ||||||||
[M:3/2] F,,4 C,4 F,,4 | G,,4 D,4 G,,4 | B,,4 F,4 B,,4 | F,,2 B,,2 A,,4 B,,4 | x4- x4 B,,4 | %60
w: ||||4 *|
 G,,4 D,4 G,,4 | B,,4 F,4 B,,4 | C,4 G,4 C,4 | G,,2 C,2 =B,,4 C,4 | x4- x4 C,4 || %65
w: ||||4 *|
[M:4/4] F,2 C,2 G,4 | C,8 | F,6 F,2 | F,4 A,4- |[M:4/4] A,4 ^F,4 | G,8 | G,4 D,4 | (x4- x4 | %73
w: |||||||3|
 x4) x4 | B,,8 | _E,6 E,2 | _E,4 G,4- | G,4 !courtesy!=E,4 | F,8 | F,4 _E,4 | (x4- x4 | x4) x4 | %82
w: ||||* 6||* 6|||
 G,,8 ||[M:3/2] C,12 | F,12 | _E,12 |[M:3/2] F,12 | F,12 | G,12 | G,12 | A,12 | G,8 D,4 | A,8 D,4 | %93
w: |||||||||||
 ^F,12 | G,12 | _E,12 | F,12 | D,12 | _E,12 | C,12 | D,12 | C,8 G,,4 ||[M:4/4] x4- x4 | G,,8 || %104
w: |||||||||4||
[M:3/2] G,,4 D,4 _E,4 | F,4 B,,4 C,4 | F,4 G,4 C,4 | D,4 G,4 A,4 ||[M:4/4] D,4 C,2 =B,,2 | %109
w: ||||* * 6|
 D,4 C,2 =B,,2 | x2- x2 G,4 | F,2 E,2 G,4 | F,2 E,2 x2- x2 | C,4 B,,2 A,,2 |[M:4/4] C,4 B,,2 A,,2 | %115
w: * * 6|4 *||* 6 4|* * 6|* * 6|
 x2- x2 F,,4 | D,4 C,2 G,,2 | D,4 C,2 G,,2 | x4- x4 | G,,4 C,4- | C,4 G,,4 | x2- x4 x2 | %122
w: 4 *|||4||||
 !fermata!G,,8 |] %123
w: |

